**kern	**silbe	**kern	**silbe
*ICvox	*	*ICvox	*
*	*	*A:	*
*	*	*M4/4	*
*	*	*clefG2	*
r;	.	r;	.
*A:	*	*	*
*M4/4	*	*	*
*clefF4	*	*	*
=1	=1	=1	=1
r;	.	1r	.
=1	=1	=1	=1
1r	.	1r	.
=2	=2	=2	=2
1r	.	1r	.
=3	=3	=3	=3
1r	.	1r	.
=4	=4	=4	=4
1r	.	1r	.
=5	=5	=5	=5
1r	.	1r	.
=6	=6	=6	=6
1r	.	1r	.
=7	=7	=7	=7
1r	.	1r	.
=8	=8	=8	=8
1r	.	1r	.
=9	=9	=9	=9
1r	.	1r	.
=10	=10	=10	=10
2r	.	1r	.
8r	.	.	.
8F#	Do	.	.
8A	you	.	.
8B	re-	.	.
=11	=11	=11	=11
8c#	-mem-	1r	.
8c#	-ber	.	.
4r	.	.	.
2r	.	.	.
=12	=12	=12	=12
8c#	twen-	1r	.
8e	-ty	.	.
8f#	first	.	.
8B	night	.	.
4A	_	.	.
8c#	Sep-	.	.
8c#	-tem-	.	.
=13	=13	=13	=13
4c#	-ber?.	1r	.
4r	.	.	.
4r	.	.	.
8A	Love	.	.
8B	was	.	.
=14	=14	=14	=14
8c#	chang-	1r	.
8e	-ing	.	.
8f#	the	.	.
8B	minds	.	.
8A	_	.	.
8A	of	.	.
8c#	pre-	.	.
8c#	-ten-	.	.
=15	=15	=15	=15
4c#	-ders|	1r	.
4r	.	.	.
4r	.	.	.
8A	while	.	.
8B	_	.	.
=16	=16	=16	=16
8c#	chas-	1r	.
8e	-ing	.	.
8f#	the	.	.
16B	clouds	.	.
16c#	_	.	.
4B	_	.	.
8A	a-	.	.
8B	-way.	.	.
=17	=17	=17	=17
[1A	_	1r	.
=18	=18	=18	=18
2A]	_	1r	.
8r	.	.	.
8c#	Our	.	.
8B	hearts	.	.
8A	were	.	.
=19	=19	=19	=19
8c#	ring-	1r	.
8c#	-ing	.	.
4r	.	.	.
8r	.	.	.
8A	in	.	.
8B	the	.	.
[8c#	key	.	.
=20	=20	=20	=20
8c#]	_	1r	.
8e	that	.	.
8f#	our	.	.
8B	souls	.	.
4A	_	.	.
8A	were	.	.
16c#	sing-	.	.
16d	_	.	.
=21	=21	=21	=21
4c#	-ing|	1r	.
4r	.	.	.
4r	.	.	.
8A	as	.	.
8B	we	.	.
=22	=22	=22	=22
8c#	danced	1r	.
8e	in	.	.
8f#	the	.	.
8B	night.	.	.
4A	_	.	.
8c#	Re-	.	.
8c#	-mem-	.	.
=23	=23	=23	=23
4c#	-ber	1r	.
4r	.	.	.
4r	.	.	.
8A	how	.	.
8B	the	.	.
=24	=24	=24	=24
8c#	stars	1r	.
8e	stole	.	.
8f#	the	.	.
16c#	night	.	.
16B	_	.	.
4A	_	.	.
8A	a-	.	.
8B	-way.	.	.
=25	=25	=25	=25
[2A	_	8r	.
.	.	8f#	[Ah
.	.	8r	.
.	.	8a	ah
8A]	_	8r	.
16F#	_	8b	ah.]
16E	_	.	.
16F#	_	8a	_
16E	_	.	.
8C#	_	8r	.
=26	=26	=26	=26
16C#	_	4cc#	[Ba-
16BB	_	.	.
8AA	_	.	.
4r	.	8dd	-de-
.	.	4.cc#	-ya.]
2r	.	.	.
.	.	4r	.
=27	=27	=27	=27
1r	.	8cc#	Say
.	.	8dd	do
.	.	8cc#	you
.	.	8b	re-
.	.	4a	-mem-
.	.	8b	-ber
.	.	8r	.
=28	=28	=28	=28
1r	.	4cc#	[Ba-
.	.	8dd	-de-
.	.	4.cc#	-ya]
.	.	4r	.
=29	=29	=29	=29
1r	.	8cc#	danc-
.	.	8dd	-ing
.	.	8cc#	in
.	.	8b	Sep-
.	.	4a	-tem-
.	.	8b	-ber?.
.	.	8r	.
=30	=30	=30	=30
1r	.	4cc#	[Ba-
.	.	8dd	-de-
.	.	4.cc#	-ya]
.	.	4r	.
=31	=31	=31	=31
1r	.	8cc#	ne-
.	.	8dd	-ver
.	.	8cc#	was
.	.	8b	a
.	.	4a	cloud-
.	.	8f#	-y
.	.	8b	day.
=32	=32	=32	=32
1r	.	[1a	_
=33	=33	=33	=33
1r	.	2a]	_
.	.	2r	.
=34	=34	=34	=34
1r	.	4a	[Ba-
.	.	8f#	-du-
.	.	8e	-a,
.	.	4a	ba-
.	.	8f#	-du-
.	.	8e	-a,
=35	=35	=35	=35
4A	[Ba-	8r	.
.	.	8a	ba-
8F#	-du-	8f#	-du-
8E	-a,	8e	-a,
4A	Ba-	4a	ba-
8F#	-du-	8f#	-du-
8E	-a,	8e	-a,
=36	=36	=36	=36
4A	Ba-	4a	Ba-
8F#	-du-	8f#	-du-
8E	-a,	8e	-a,
4A	Ba-	4a	ba-
8F#	-du-	8f#	-du-
8E	-a,	8e	-a,
=37	=37	=37	=37
4A	Ba-	8r	.
.	.	8a	ba-
8F#	-du-	8f#	-du-
8E	-a,	8e	-a,
4A	Ba-	4a	ba-
8F#	-du-	8f#	-du-
8E	-a,	8e	-a,
=38	=38	=38	=38
4A	Ba-	4a	Ba-
8F#	-du-	8f#	-du-
8E	-a,	8e	-a,
4A	Ba-	4a	ba-
8F#	-du-	8f#	-du-
8E	-a,	8e	-a,
=39	=39	=39	=39
4A	Ba-	8r	.
.	.	8b	Ba-
8F#	-du-	8f#	-du-
8E	-a,	4.a	-a.]
4A	Ba-	.	.
8F#	-du-	4r	.
8E	-a,	.	.
=40	=40	=40	=40
4A	Ba-	1r	.
8F#	-du-	.	.
8E	-a,	.	.
4A	ba-	.	.
8F#	-du	.	.
16C#	way.]	.	.
16BB	_	.	.
=41	=41	=41	=41
2AA	_	1r	.
2r	.	.	.
=42	=42	=42	=42
2r	.	1r	.
8r	.	.	.
8c#	My	.	.
8B	thoughts	.	.
8A	are	.	.
=43	=43	=43	=43
8c#	with	1r	.
8c#	you	.	.
4r	.	.	.
8r	.	.	.
8A	Hold-	.	.
8B	-ing	.	.
[8c#	hands	.	.
=44	=44	=44	=44
8c#]	_	1r	.
8e	with	.	.
8f#	your	.	.
8B	heart	.	.
4A	_	.	.
8c#	to	.	.
[8d	see	.	.
=45	=45	=45	=45
8d]	_	1r	.
8c#	you.	.	.
4r	.	.	.
4r	.	.	.
8A	On-	.	.
8B	-ly	.	.
=46	=46	=46	=46
8c#	blue	1r	.
8e	talk	.	.
8f#	and	.	.
16c#	love.	.	.
16B	_	.	.
4A	_	.	.
8c#	Re-	.	.
8c#	-mem-	.	.
=47	=47	=47	=47
4c#	-ber	1r	.
4r	.	.	.
4r	.	.	.
8A	how	.	.
8B	we	.	.
=48	=48	=48	=48
8c#	knew	1r	.
8e	love	.	.
8f#	was	.	.
16B	here	.	.
16c#	_	.	.
4B	_	.	.
8A	to	.	.
8B	stay.	.	.
=49	=49	=49	=49
[1A	_	1r	.
=50	=50	=50	=50
2A]	_	1r	.
4r	.	.	.
8c#	Now	.	.
8e	De-	.	.
=51	=51	=51	=51
8e	-cem-	1r	.
4.e	-ber	.	.
8r	.	.	.
8c#	found	.	.
8e	the	.	.
8g	love	.	.
=52	=52	=52	=52
4f#	_	1r	.
8e	we	.	.
4e	shared	.	.
8e	in	.	.
8f#	Sep-	.	.
8a	-tem-	.	.
=53	=53	=53	=53
4.f#	-ber.	1r	.
8r	.	.	.
8r	.	.	.
8c#	On-	.	.
8e	-ly	.	.
8g	blue	.	.
=54	=54	=54	=54
8f#	_	1r	.
8e	talk	.	.
8r	.	.	.
4.f#	love.	.	.
8c	Re-	.	.
8c	-mem-	.	.
=55	=55	=55	=55
8B	-ber	1r	.
8A	_	.	.
4r	.	.	.
2r	.	.	.
=56	=56	=56	=56
8c#	True	1r	.
8e	love	.	.
8f#	we	.	.
16B	share	.	.
16c#	_	.	.
4B	_	.	.
8A	to	.	.
8B	day	.	.
=57	=57	=57	=57
2.A	_	8r	.
.	.	8f#	[Ah
.	.	8r	.
.	.	8a	ah
.	.	8r	.
.	.	8b	ah.]
[4A	_	8a	_
.	.	8r	.
=58	=58	=58	=58
2A]	_	4cc#	[Ba-
.	.	8dd	-de-
.	.	4.cc#	-ya.]
4a	_	.	.
8r	.	4r	.
[8a	yes	.	.
=59	=59	=59	=59
4a]	_	8cc#	Say
.	.	8dd	do
8f#	_	8cc#	you
4.a	yes.	8b	re-
.	.	4a	-mem-
4r	.	8b	-ber
.	.	8r	.
=60	=60	=60	=60
1r	.	4cc#	[Ba-
.	.	8dd	-de-
.	.	4.cc#	-ya]
.	.	4r	.
=61	=61	=61	=61
2r	.	8cc#	danc-
.	.	8dd	-ing
.	.	8cc#	in
.	.	8b	Sep-
8e	[Ooh-	4a	-tem-
[4.f#	-oh.]	.	.
.	.	8b	-ber?.
.	.	8r	.
=62	=62	=62	=62
2f#]	_	4cc#	[Ba-
.	.	8dd	-de-
.	.	4.cc#	-ya]
8f#	_	.	.
8e	_	.	.
8c#	_	4r	.
[8e	_	.	.
=63	=63	=63	=63
4e]	_	8cc#	ne-
.	.	8dd	-ver
4r	.	8cc#	was
.	.	8b	a
8r	.	4a	cloud-
8f#	[Eh-	.	.
16f#	-hey.]	8f#	-y
16e	_	.	.
8f#	_	8b	day.
=64	=64	=64	=64
4e	_	[1a	_
4r	.	.	.
2r	.	.	.
=65	=65	=65	=65
1r	.	2a]	_
.	.	8r	.
.	.	8f#	There
.	.	8a	was
.	.	8b	a
=66	=66	=66	=66
*clefG2	*	*	*
2r	.	4cc#	Ba-
.	.	8dd	-de-
.	.	4.cc#	-ya.
8r	.	.	.
8f#	There	.	.
8a	was	4r	.
8b	a	.	.
=67	=67	=67	=67
4cc#	Ba-	8cc#	Say
.	.	8dd	do
8dd	-de-	8cc#	you
4.cc#	-ya	8b	re-
.	.	4a	-mem-
8b	de-	8b	-ber
[8a	-ya	8r	.
=68	=68	=68	=68
4a]	_	4cc#	[Ba-
8b	de-	8dd	-de-
4.f#	-ya.	4.cc#	-ya]
4r	.	4r	.
=69	=69	=69	=69
4cc#	[Ba-	8cc#	danc-
.	.	8dd	-ing
8dd	-de-	8cc#	in
4.cc#	-ya	8b	Sep-
.	.	4a	-tem-
8b	de-	8b	-ber?.
[8a	-ya	8r	.
=70	=70	=70	=70
4a]	_	4cc#	[Ba-
8b	de-	8dd	-de-
4.f#	-ya.]	4.cc#	-ya]
4r	.	4r	.
=71	=71	=71	=71
4cc#	[Ba-	8cc#	Gol-
.	.	8dd	-den
8dd	-de-	8cc#	dreams
4.cc#	-ya	8b	were
.	.	4a	shi-
8b	de-	8f#	-ny
[8a	-ya	8b	days.
=72	=72	=72	=72
4a]	_	[1a	_
8b	de-	.	.
4f#	-ya.	.	.
8r	.	.	.
8b	de-	.	.
[8ee	-ya.]	.	.
=73	=73	=73	=73
1ee_	_	2a]	_
.	.	2r	.
=74	=74	=74	=74
2ee]	_	1r	.
2r	.	.	.
=75	=75	=75	=75
8r	.	1r	.
8e	The	.	.
8r	.	.	.
8e	bell	.	.
8r	.	.	.
8e	was	.	.
8r	.	.	.
8g	ring-	.	.
=76	=76	=76	=76
4f#	-ing.	1r	.
8e	_	.	.
8r	.	.	.
8r	.	.	.
8e	a-	.	.
8e	-ha.	.	.
8f#	_	.	.
=77	=77	=77	=77
8r	.	1r	.
8e	Our	.	.
8r	.	.	.
[8a	souls	.	.
4.a]	_	.	.
8f#	were	.	.
=78	=78	=78	=78
8g	sing-	1r	.
16f#	-ing.	.	.
16g	_	.	.
[4f#	_	.	.
8f#]	_	.	.
4e	_	.	.
8r	.	.	.
=79	=79	=79	=79
8r	.	1r	.
8c#	Do	.	.
8e	you	.	.
8c#	re-	.	.
8e	-mem-	.	.
4.f#	-ber?.	.	.
=80	=80	=80	=80
8c#	ne-	1r	.
8e	-ver	.	.
8f#	a	.	.
16B	cloud-	.	.
16c#	_	.	.
4B	_	.	.
8A	-y	.	.
16B	day	.	.
[16F#	_	.	.
=81	=81	=81	=81
8F#]	_	2r	.
8r	.	.	.
8r	.	.	.
[8A	yaow.	.	.
4A]	_	8r	.
.	.	8f#	And
4r	.	8a	we
.	.	8b	said
=82	=82	=82	=82
2r	.	4cc#	Ba-
.	.	8dd	-de-
.	.	4.cc#	-ya.
8r	.	.	.
8f#	And	.	.
8a	we	4r	.
8b	said	.	.
=83	=83	=83	=83
4cc#	Ba-	8cc#	Say
.	.	8dd	do
8dd	-de-	8cc#	you
4.cc#	-ya	8b	re-
.	.	4a	-mem-
8b	de-	8b	-ber
[8a	-ya	8r	.
=84	=84	=84	=84
4a]	_	4cc#	[Ba-
8b	de-	8dd	-de-
4.f#	-ya.	4.cc#	-ya]
4r	.	4r	.
=85	=85	=85	=85
4cc#	[Ba-	8cc#	danc-
.	.	8dd	-ing
8dd	-de-	8cc#	in
4.cc#	-ya	8b	Sep-
.	.	4a	-tem-
8b	de-	8b	-ber?.
[8a	-ya	8r	.
=86	=86	=86	=86
4a]	_	4cc#	[Ba-
8b	de-	8dd	-de-
4.f#	-ya]	4.cc#	-ya]
4r	.	4r	.
=87	=87	=87	=87
4cc#	[Ba-	8cc#	ne-
.	.	8dd	-ver
8dd	-de-	8cc#	was
4.cc#	-ya	8b	a
.	.	4a	cloud-
8b	de-	8f#	-y
[8a	-ya	8b	day.
=88	=88	=88	=88
4a]	_	[1a	_
8b	de-	.	.
4f#	-ya.	.	.
8r	.	.	.
8b	de-	.	.
[8ee	-ya]	.	.
=89	=89	=89	=89
1ee_	_	2a]	_
.	.	8r	.
.	.	8f#	And
.	.	8a	we
.	.	8b	said
=90	=90	=90	=90
2ee]	_	4cc#	Ba-
.	.	8dd	-de-
.	.	4.cc#	-ya.
8r	.	.	.
8f#	And	.	.
8a	we	4r	.
8b	said	.	.
=91	=91	=91	=91
4cc#	Ba-	8cc#	Say
.	.	8dd	do
8dd	-de-	8cc#	you
4.cc#	-ya	8b	re-
.	.	4a	-mem-
8b	de-	8b	-ber
[8a	-ya	8r	.
=92	=92	=92	=92
4a]	_	4cc#	[Ba-
8b	de-	8dd	-de-
4.f#	-ya.	4.cc#	-ya]
4r	.	4r	.
=93	=93	=93	=93
4cc#	[Ba-	8cc#	danc-
.	.	8dd	-ing
8dd	-de-	8cc#	in
4.cc#	-ya	8b	Sep-
.	.	4a	-tem-
8b	de-	8b	-ber?.
[8a	-ya	8r	.
=94	=94	=94	=94
4a]	_	4cc#	Ba-
8b	de-	8dd	-de-
4.f#	-ya.]	4.cc#	-ya
4r	.	4r	.
=95	=95	=95	=95
4cc#	[Ba-	8cc#	gol-
.	.	8dd	-den
8dd	-de-	8cc#	dreams
4.cc#	-ya	8b	were
.	.	4a	shi-
8b	de-	8f#	-ny
[8a	-ya	8b	days.
=96	=96	=96	=96
4a]	_	[1a	_
8b	de-	.	.
4f#	-ya	.	.
8r	.	.	.
8b	de-	.	.
[8ee	-ya.]	.	.
=97	=97	=97	=97
1ee_	_	2a]	_
.	.	2r	.
=98	=98	=98	=98
2ee]	_	4cc#	[Ba-
.	.	8dd	-de-
.	.	4.cc#	-ya
2r	.	.	.
.	.	8b	de-
.	.	[8a	-ya
=99	=99	=99	=99
4cc#	[Ba-	4a]	_
8dd	-de-	8b	de-
4.cc#	-ya	4.f#	-ya.]
8b	de-	4r	.
[8a	-ya	.	.
=100	=100	=100	=100
4a]	_	4cc#	[Ba-
8b	de-	8dd	-de-
4.f#	-ya.]	4.cc#	-ya
4r	.	8b	de-
.	.	[8a	-ya
=101	=101	=101	=101
4cc#	[Ba-	4a]	_
8dd	-de-	8b	de-
4.cc#	-ya	4.f#	-ya.]
8b	de-	4r	.
[8a	-ya	.	.
=102	=102	=102	=102
4a]	_	4cc#	[Ba-
8b	de-	8dd	-de-
4.f#	-ya.]	4.cc#	-ya
4r	.	8b	de-
.	.	[8a	-ya
=103	=103	=103	=103
4cc#	[Ba-	4a]	_
8dd	-de-	8b	de-
4.cc#	-ya	4f#	-ya
.	.	8r	.
8b	de-	8b	de-
[8a	-ya	[8a	-ya.]
=104	=104	=104	=104
4a]	_	1a_	_
8b	de-	.	.
4f#	-ya	.	.
8r	.	.	.
8b	de-	.	.
[8ee	-ya.]	.	.
=105	=105	=105	=105
1ee_	_	2a]	_
.	.	2r	.
=106	=106	=106	=106
2ee]	_	4cc#	[Ba-
.	.	8dd	-de-
.	.	4.cc#	-ya
2r	.	.	.
.	.	8b	de-
.	.	[8a	-ya
=107	=107	=107	=107
4cc#	[Ba-	4a]	_
8dd	-de-	8b	de-
4.cc#	-ya	4.f#	-ya]
8b	de-	4r	.
[8a	-ya	.	.
=108	=108	=108	=108
4a]	_	4cc#	[Ba-
8b	de-	8dd	-de-
4.f#	-ya]	4.cc#	-ya
4r	.	8b	de-
.	.	[8a	-ya
=109	=109	=109	=109
4cc#	[Ba-	4a]	_
8dd	-de-	8b	de-
4.cc#	-ya	4.f#	-ya]
8b	de-	4r	.
[8a	-ya	.	.
=110	=110	=110	=110
4a]	_	4cc#	[Ba-
8b	de-	8dd	-de-
4.f#	-ya]	4.cc#	-ya
4r	.	8b	de-
.	.	[8a	-ya
=111	=111	=111	=111
4cc#	[Ba-	4a]	_
8dd	-de-	8b	de-
4.cc#	-ya	4f#	-ya
.	.	8r	.
8b	de-	8b	de-
[8a	-ya	[8a	-ya.]
=112	=112	=112	=112
4a]	_	1a_	_
8b	de-	.	.
4f#	-ya	.	.
8r	.	.	.
8b	de-	.	.
[8ee	-ya.]	.	.
=113	=113	=113	=113
1ee_	_	2a]	_
.	.	2r	.
=114	=114	=114	=114
2ee]	_	r;	.
2r	.	r;	.
*	*	*-	*-
r;	.
r;	.
*-	*-
!!!ENC: Nathaniel Condit-Schultz